X: 3
T: Soldier Soldier
M: 4/4
K: G
L: 1/4
C: arr. Marshall Barron
D "G" G G "Em" G/A/ B/A/ | "C" G E "D" D D/E/ |
w: "Oh, sol-dier, sol-dier,  won't you mar-ry me,  with your
"G" G G "Em" B d | "Bm" d2 "G" z d | "C" e e "G" d B |
w: mus-ket, fife and drum?" "Oh, no, sweet maid, I
"Am" A/B/ A/G/ "Em" E "D" D/D/ | "G" G B "D" d B/A/ | "G" G3 |
w: can-not mar-ry you, for I have no hat to put on."
W: ... I have no shirt to put on
W: ... I have no coat to put on
W: ... I have no boots to put on
W: ... I have a wife at home!

